assets/images/icons/src/plug.svg

<?xml version="1.0" encoding="utf-8"?>
<!-- Generated by IcoMoon.io -->
<!DOCTYPE svg PUBLIC "-//W3C//DTD SVG 1.1//EN" "http://www.w3.org/Graphics/SVG/1.1/DTD/svg11.dtd">
<svg version="1.1" xmlns="http://www.w3.org/2000/svg" xmlns:xlink="http://www.w3.org/1999/xlink" width="14" height="14" viewBox="0 0 14 14">
<path fill="#444444" d="M13.711 3.539q0.289 0.289 0.289 0.703t-0.289 0.711l-3.133 3.125 1.172 1.172-1.25 1.25q-1.273 1.273-3.043 1.457t-3.215-0.785l-2.828 2.828h-1.414v-1.414l2.828-2.828q-0.969-1.445-0.785-3.215t1.457-3.043l1.25-1.25 1.172 1.172 3.125-3.133q0.297-0.289 0.711-0.289t0.703 0.289 0.289 0.707-0.289 0.707l-3.125 3.133 1.828 1.828 3.133-3.125q0.297-0.289 0.711-0.289t0.703 0.289z"></path>
</svg>

<svg xmlns="http://www.w3.org/2000/svg" width="14" height="14" viewBox="0 0 14 14"><path fill="#444" d="M13.711 3.539q.289.289.289.703t-.289.711l-3.133 3.125L11.75 9.25 10.5 10.5q-1.273 1.273-3.043 1.457t-3.215-.785L1.414 14H0v-1.414l2.828-2.828q-.969-1.445-.785-3.215T3.5 3.5l1.25-1.25 1.172 1.172L9.047.289Q9.344 0 9.758 0t.703.289.289.707-.289.707L7.336 4.836l1.828 1.828 3.133-3.125q.297-.289.711-.289t.703.289z"/></svg>
